public/fissa/screen-3.svg

<svg fill="none" height="852" viewBox="0 0 393 852" width="393" xmlns="http://www.w3.org/2000/svg" xmlns:xlink="http://www.w3.org/1999/xlink"><linearGradient id="a"><stop offset="0" stop-color="#00faac"/><stop offset=".274645" stop-color="#1a6979"/><stop offset=".56968" stop-color="#233366"/><stop offset=".807803" stop-color="#2b0857"/></linearGradient><linearGradient id="b" gradientUnits="userSpaceOnUse" x1="-196.5" x2="375.638" xlink:href="#a" y1="-431.705" y2="851.276"/><linearGradient id="c" gradientUnits="userSpaceOnUse" x1="-467" x2="-226.87" xlink:href="#a" y1="-35.5134" y2="1131.87"/><clipPath id="d"><path d="m0 0h393v852h-393z"/></clipPath><clipPath id="e"><path d="m0 0h393v852h-393z"/></clipPath><g clip-path="url(#d)"><g clip-path="url(#e)"><path d="m0 0h393v852h-393z" fill="#fff"/><path d="m0 0h393v852h-393z" fill="url(#b)"/><circle cx="207" cy="643" fill="#fff" r="337"/><circle cx="207" cy="643" fill="url(#c)" r="337"/><g fill="#fff"><path d="m159.103 504.455 6.186 5.468 16.827-19.038 6.713 5.934-16.826 19.038 3.596 3.179-4.959 5.61-3.596-3.179-1.569 1.775c-2.571 2.909-5.329 4.258-8.274 4.046-2.973-.179-5.947-1.583-8.92-4.21l-3.165-2.798 4.959-5.61 3.069 2.712c2.078 1.837 4.05 1.7 5.915-.41l1.271-1.438-6.186-5.468z"/><path d="m124.228 445.118-.524 9.073-7.987-.46.524-9.073zm5.619.389 32.841 1.895-.516 8.945-32.841-1.895z"/><path d="m189.55 384.612-7.969 3.954c-1.216-1.588-3.238-1.68-6.067-.277-2.866 1.423-3.883 2.975-3.048 4.656.36.726.855 1.148 1.484 1.264.649.06 1.603-.081 2.864-.42l5.73-1.843c6.742-2.154 11.441-.555 14.095 4.796 1.309 2.637 1.281 5.461-.083 8.471-1.364 3.011-4.111 5.54-8.238 7.588-4.358 2.162-8.119 2.932-11.285 2.312-3.127-.64-5.65-2.46-7.567-5.462l7.969-3.954c1.652 2.372 4.237 2.685 7.753.941 3.402-1.688 4.572-3.602 3.51-5.742-.474-.956-1.15-1.502-2.027-1.638-.896-.175-2.175-.017-3.837.474l-6.188 1.927c-5.768 1.623-9.751.218-11.951-4.216-1.346-2.713-1.395-5.452-.146-8.215 1.287-2.782 3.995-5.196 8.123-7.244 3.631-1.802 6.934-2.44 9.909-1.916 3.013.506 5.336 2.021 6.969 4.544z"/><path d="m265.204 418.386-5.836-6.714c1.23-1.577.809-3.557-1.263-5.94-2.099-2.416-3.857-3.007-5.274-1.776-.612.532-.895 1.117-.848 1.755.106.643.482 1.531 1.129 2.665l3.228 5.08c3.785 5.981 3.424 10.931-1.084 14.85-2.222 1.931-4.962 2.616-8.219 2.056-3.258-.561-6.398-2.58-9.421-6.058-3.191-3.671-4.885-7.117-5.083-10.336-.17-3.188.955-6.088 3.376-8.701l5.836 6.714c-1.878 2.198-1.529 4.778 1.046 7.74 2.491 2.866 4.638 3.515 6.442 1.948.805-.7 1.163-1.491 1.073-2.375-.057-.911-.533-2.109-1.427-3.593l-3.426-5.502c-3.025-5.171-2.67-9.381 1.066-12.628 2.286-1.987 4.923-2.725 7.912-2.213 3.017.544 6.036 2.554 9.059 6.032 2.659 3.06 4.11 6.095 4.353 9.106.271 3.043-.609 5.673-2.639 7.89z"/><path d="m233.32 491.975 2.242 1.703 1.007-1.325c-.672-3.136.218-6.318 2.669-9.545 2.168-2.855 4.717-4.482 7.646-4.882 2.964-.374 5.668.367 8.115 2.226 2.344 1.78 3.712 4.212 4.103 7.295.39 3.083-.769 6.408-3.479 9.976l-5.303 6.982.662.503c2.718 2.065 5.252 1.551 7.6-1.541 2.091-2.752 2.279-4.939.565-6.563l5.381-7.084c2.428 1.952 3.586 4.519 3.473 7.702-.079 3.208-1.345 6.426-3.797 9.653-2.838 3.738-5.843 6.036-9.015 6.896-3.197.894-6.477.063-9.841-2.492l-17.022-12.93zm9.679-2.373c-1.317 1.733-1.878 3.53-1.685 5.391.194 1.862 1.106 3.412 2.737 4.651l1.631 1.238 4.258-5.606c2.478-3.262 2.544-5.783.2-7.564-2.413-1.832-4.793-1.202-7.141 1.89z"/></g></g></g></svg>

<svg width="393" height="852" viewBox="0 0 393 852" fill="none" xmlns="http://www.w3.org/2000/svg">
<g clip-path="url(#clip0_1010_28560)">
<g clip-path="url(#clip1_1010_28560)">
<rect width="393" height="852" fill="white"/>
<rect width="393" height="852" fill="url(#paint0_linear_1010_28560)"/>
<circle cx="207" cy="643" r="337" fill="white"/>
<circle cx="207" cy="643" r="337" fill="url(#paint1_linear_1010_28560)"/>
<path d="M159.103 504.455L165.289 509.923L182.116 490.885L188.829 496.819L172.003 515.857L175.599 519.036L170.64 524.646L167.044 521.467L165.475 523.242C162.904 526.151 160.146 527.5 157.201 527.288C154.228 527.109 151.254 525.705 148.281 523.078L145.116 520.28L150.075 514.67L153.144 517.382C155.222 519.219 157.194 519.082 159.059 516.972L160.33 515.534L154.144 510.066L159.103 504.455Z" fill="white"/>
<path d="M124.228 445.118L123.704 454.191L115.717 453.731L116.241 444.658L124.228 445.118ZM129.847 445.507L162.688 447.402L162.172 456.347L129.331 454.452L129.847 445.507Z" fill="white"/>
<path d="M189.55 384.612L181.581 388.566C180.365 386.978 178.343 386.886 175.514 388.289C172.648 389.712 171.631 391.264 172.466 392.945C172.826 393.671 173.321 394.093 173.95 394.209C174.599 394.269 175.553 394.128 176.814 393.789L182.544 391.946C189.286 389.792 193.985 391.391 196.639 396.742C197.948 399.379 197.92 402.203 196.556 405.213C195.192 408.224 192.445 410.753 188.318 412.801C183.96 414.963 180.199 415.733 177.033 415.113C173.906 414.473 171.383 412.653 169.466 409.651L177.435 405.697C179.087 408.069 181.672 408.382 185.188 406.638C188.59 404.95 189.76 403.036 188.698 400.896C188.224 399.94 187.548 399.394 186.671 399.258C185.775 399.083 184.496 399.241 182.834 399.732L176.646 401.659C170.878 403.282 166.895 401.877 164.695 397.443C163.349 394.73 163.3 391.991 164.549 389.228C165.836 386.446 168.544 384.032 172.672 381.984C176.303 380.182 179.606 379.544 182.581 380.068C185.594 380.574 187.917 382.089 189.55 384.612Z" fill="white"/>
<path d="M265.204 418.386L259.368 411.672C260.598 410.095 260.177 408.115 258.105 405.732C256.006 403.316 254.248 402.725 252.831 403.956C252.219 404.488 251.936 405.073 251.983 405.711C252.089 406.354 252.465 407.242 253.112 408.376L256.34 413.456C260.125 419.437 259.764 424.387 255.256 428.306C253.034 430.237 250.294 430.922 247.037 430.362C243.779 429.801 240.639 427.782 237.616 424.304C234.425 420.633 232.731 417.187 232.533 413.968C232.363 410.78 233.488 407.88 235.909 405.267L241.745 411.981C239.867 414.179 240.216 416.759 242.791 419.721C245.282 422.587 247.429 423.236 249.233 421.669C250.038 420.969 250.396 420.178 250.306 419.294C250.249 418.383 249.773 417.185 248.879 415.701L245.453 410.199C242.428 405.028 242.783 400.818 246.519 397.571C248.805 395.584 251.442 394.846 254.431 395.358C257.448 395.902 260.467 397.912 263.49 401.39C266.149 404.45 267.6 407.485 267.843 410.496C268.114 413.539 267.234 416.169 265.204 418.386Z" fill="white"/>
<path d="M233.32 491.975L235.562 493.678L236.569 492.353C235.897 489.217 236.787 486.035 239.238 482.808C241.406 479.953 243.955 478.326 246.884 477.926C249.848 477.552 252.552 478.293 254.999 480.152C257.343 481.932 258.711 484.364 259.102 487.447C259.492 490.53 258.333 493.855 255.623 497.423L250.32 504.405L250.982 504.908C253.7 506.973 256.234 506.459 258.582 503.367C260.673 500.615 260.861 498.428 259.147 496.804L264.528 489.72C266.956 491.672 268.114 494.239 268.001 497.422C267.922 500.63 266.656 503.848 264.204 507.075C261.366 510.813 258.361 513.111 255.189 513.971C251.992 514.865 248.712 514.034 245.348 511.479L228.326 498.549L233.32 491.975ZM242.999 489.602C241.682 491.335 241.121 493.132 241.314 494.993C241.508 496.855 242.42 498.405 244.051 499.644L245.682 500.882L249.94 495.276C252.418 492.014 252.484 489.493 250.14 487.712C247.727 485.88 245.347 486.51 242.999 489.602Z" fill="white"/>
</g>
</g>
<defs>
<linearGradient id="paint0_linear_1010_28560" x1="-196.5" y1="-431.705" x2="375.638" y2="851.276" gradientUnits="userSpaceOnUse">
<stop stop-color="#00FAAC"/>
<stop offset="0.274645" stop-color="#1A6979"/>
<stop offset="0.56968" stop-color="#233366"/>
<stop offset="0.807803" stop-color="#2B0857"/>
</linearGradient>
<linearGradient id="paint1_linear_1010_28560" x1="-467" y1="-35.5134" x2="-226.87" y2="1131.87" gradientUnits="userSpaceOnUse">
<stop stop-color="#00FAAC"/>
<stop offset="0.274645" stop-color="#1A6979"/>
<stop offset="0.56968" stop-color="#233366"/>
<stop offset="0.807803" stop-color="#2B0857"/>
</linearGradient>
<clipPath id="clip0_1010_28560">
<rect width="393" height="852" fill="white"/>
</clipPath>
<clipPath id="clip1_1010_28560">
<rect width="393" height="852" fill="white"/>
</clipPath>
</defs>
</svg>
